img/b/bookbeat.fi.svg

<?xml version="1.0" encoding="UTF-8"?>
<svg width="250px" height="38px" viewBox="0 0 250 38" version="1.1" xmlns="http://www.w3.org/2000/svg" xmlns:xlink="http://www.w3.org/1999/xlink">
    <!-- Generator: Sketch 50 (54983) - http://www.bohemiancoding.com/sketch -->
    <title>BookBeat</title>
    <desc>Created with Sketch.</desc>
    <defs>
        <polygon id="path-1" points="0.0146484375 38.3154297 250 38.3154297 250 0.0744628906 0.0146484375 0.0744628906"/>
    </defs>
    <g id="Page-1" stroke="none" stroke-width="1" fill="none" fill-rule="evenodd">
        <g id="BookBeat">
            <g>
                <mask id="mask-2" fill="white">
                    <use xlink:href="#path-1"/>
                </mask>
                <g id="Clip-2"/>
                <path d="M180.704102,18.2202148 C180.704102,18.2202148 186.5979,18.0822754 188.451904,17.9987793 C188.781006,17.9838867 189.040527,17.708252 189.027832,17.3791504 C188.872314,13.3591309 187.712891,9.66040039 185.286621,9.66040039 C184.680908,9.66040039 184.014404,9.90332031 183.408203,10.5087891 C181.590332,12.3266602 180.825195,15.0090332 180.704102,18.2202148 L180.704102,18.2202148 Z M184.559814,38.3300781 C176.319092,38.3300781 171.229492,31.9680176 171.229492,24.1516113 C171.229492,14.8203125 178.015625,8.27612305 186.013916,8.27612305 C193.587891,8.27612305 197.647461,12.3962402 197.647461,17.607666 C197.647461,18.1943359 197.603271,18.7937012 197.54126,19.2561035 C197.488281,19.6520996 197.147705,19.9450684 196.748291,19.9450684 L180.742432,19.9450684 C180.802979,27.8825684 184.317139,31.7253418 190.55835,31.7253418 C193.548096,31.7253418 195.12793,30.5749512 196.671143,28.8740234 C196.875244,28.6489258 197.210449,28.5996094 197.473877,28.7509766 L197.483643,28.7565918 C197.780518,28.9272461 197.898926,29.3015137 197.746338,29.6079102 C195.121826,34.875 190.945068,38.3300781 184.559814,38.3300781 L184.559814,38.3300781 Z" id="Fill-1" fill="#0B0B0A" mask="url(#mask-2)"/>
                <path d="M87.0270996,35.2746582 C88.4523926,32.6564941 88.8510742,28.1843262 88.9799805,24.4902344 C89.2463379,16.8603516 87.7443848,9.84814453 84.5952148,9.73828125 C83.2023926,9.68945312 82.435791,10.4990234 81.9821777,11.331543 C80.5568848,13.9494629 80.1582031,18.4223633 80.0292969,22.1164551 C79.7629395,29.746582 81.2651367,36.7580566 84.4140625,36.8679199 C85.8068848,36.9165039 86.5734863,36.107666 87.0270996,35.2746582 L87.0270996,35.2746582 Z M99.9245605,23.598877 C99.763916,28.2011719 97.7553711,31.8901367 95.3112793,34.1696777 C92.3032227,36.9748535 88.4914551,38.4782715 83.7075195,38.3112793 C74.0791016,37.9750977 68.8183594,30.637207 69.0847168,23.0073242 C69.2453613,18.4047852 71.2539062,14.7158203 73.697998,12.4370117 C76.7060547,9.63183594 80.5178223,8.12768555 85.3017578,8.29492187 C94.9296875,8.63110352 100.190918,15.9692383 99.9245605,23.598877 L99.9245605,23.598877 Z" id="Fill-3" fill="#0B0B0A" mask="url(#mask-2)"/>
                <path d="M53.3586426,35.2746582 C54.7839355,32.6564941 55.1826172,28.1843262 55.3115234,24.4902344 C55.5778809,16.8603516 54.0756836,9.84814453 50.9267578,9.73828125 C49.5339355,9.68945312 48.767334,10.4990234 48.3137207,11.331543 C46.8884277,13.9494629 46.4897461,18.4223633 46.3608398,22.1164551 C46.0942383,29.746582 47.5964355,36.7580566 50.7456055,36.8679199 C52.1384277,36.9165039 52.9050293,36.107666 53.3586426,35.2746582 L53.3586426,35.2746582 Z M66.2561035,23.598877 C66.095459,28.2011719 64.0869141,31.8901367 61.6428223,34.1696777 C58.6345215,36.9748535 54.822998,38.4782715 50.0390625,38.3112793 C40.4106445,37.9750977 35.1499023,30.637207 35.4162598,23.0073242 C35.5769043,18.4047852 37.5854492,14.7158203 40.029541,12.4370117 C43.0375977,9.63183594 46.8493652,8.12768555 51.6333008,8.29492187 C61.2612305,8.63110352 66.5224609,15.9692383 66.2561035,23.598877 L66.2561035,23.598877 Z" id="Fill-4" fill="#0B0B0A" mask="url(#mask-2)"/>
                <path d="M244.946289,32.5031738 C243.686523,32.5031738 242.546387,32.2634277 241.826172,31.5429687 C241.106445,30.8227539 240.746094,29.862793 240.746094,28.1828613 L240.746094,13.8562012 C240.746094,13.5969238 240.956299,13.3864746 241.21582,13.3864746 L241.236572,13.3864746 C242.273193,13.3864746 243.290527,13.1081543 244.182129,12.5808105 L248.149414,10.236084 C248.366699,10.1074219 248.500977,9.87353516 248.503418,9.62060547 L248.503418,9.60913086 C248.503418,9.21020508 248.181152,8.88574219 247.783203,8.88574219 L240.806152,8.88574219 L240.806152,5.69726562 C240.806152,5.36132813 240.656982,5.04296875 240.398926,4.828125 L240.387939,4.8190918 C239.99292,4.48999023 239.425537,4.46875 239.006836,4.76757812 L227.640625,12.0891113 C227.454346,12.222168 227.343506,12.4372559 227.343506,12.6662598 L227.343506,12.6772461 C227.343506,13.0688477 227.661133,13.3864746 228.052979,13.3864746 L230.063965,13.3864746 C231.053711,13.3864746 230.919922,14.1889648 230.919922,15.1789551 L230.919922,29.7426758 C230.919922,32.8029785 231.52002,34.7233887 233.020508,36.223877 C234.340576,37.5437012 236.524414,38.3239746 239.464844,38.3239746 C244.777832,38.3239746 247.880859,35.6049805 249.926758,31.7087402 C250.065918,31.4401855 250.002441,31.107666 249.775391,30.9047852 L249.768066,30.8977051 C249.536133,30.6896973 249.191895,30.6665039 248.937988,30.8474121 C247.69043,31.7409668 246.401367,32.5031738 244.946289,32.5031738" id="Fill-5" fill="#0B0B0A" mask="url(#mask-2)"/>
                <path d="M214.711426,32.8374023 C214.236816,33.2053223 212.803955,33.4448242 211.919678,33.28125 C208.500488,32.6484375 207.447021,27.0686035 210.805664,24.3432617 C211.718262,23.6025391 212.960449,22.9165039 214.73999,22.0209961 L214.73999,27.9121094 L214.711426,32.8374023 L214.711426,32.8374023 Z M228.947266,33.5178223 C228.760742,33.3339844 228.473633,33.3310547 228.263184,33.4868164 C227.893555,33.7602539 227.438965,33.9238281 226.943604,33.9238281 C225.951904,33.9238281 225.12207,33.2758789 224.825684,32.3837891 C224.768311,32.1499023 224.726318,31.8793945 224.698975,31.5612793 L224.698975,31.2060547 C224.692871,31.0197754 224.689941,30.8115234 224.689941,30.5759277 L224.689941,20.7121582 C224.694824,20.4733887 224.69751,20.2233887 224.69751,19.9487305 L224.661377,19.9494629 L224.661377,16.8754883 C224.661377,13.9926758 224.241211,11.8903809 222.679443,10.3286133 C221.297607,8.94750977 219.015381,8.2265625 216.07251,8.2265625 C215.94165,8.2265625 215.809326,8.23876953 215.677979,8.24365234 L215.715088,8.2265625 C208.923096,8.2265625 203.318115,11.8937988 201.48877,15.2529297 C201.0896,15.8862305 200.855225,16.6289062 200.855225,17.4267578 C200.855225,19.7258301 202.767334,21.5898438 205.125732,21.5898438 C207.484375,21.5898438 209.39624,19.7258301 209.39624,17.4267578 C209.39624,15.7224121 208.344482,14.2592773 206.840088,13.6152344 C207.366699,12.6987305 208.573486,11.1445312 210.713623,11.1445312 C213.74585,11.1445312 214.693359,15.6547852 214.693359,18.0180664 L214.693115,18.0180664 C214.724121,18.6132812 214.73999,19.7390137 214.73999,20.4667969 L214.73999,20.1923828 C202.881592,25.625 200.095703,28.7268066 200.095703,31.8908691 C200.095703,32.1196289 200.111084,32.3469238 200.13501,32.5727539 C200.354492,35.5742188 202.650146,38.2866211 206.360107,38.2866211 C209.123047,38.2866211 211.2146,37.145752 213.856934,34.9228516 L214.697754,34.2026367 L214.865234,34.0644531 C215.69751,36.2570801 217.170898,37.6962891 219.455566,38.1572266 C219.988525,38.2670898 220.552979,38.3239746 221.145996,38.3239746 C224.816162,38.3239746 227.663086,35.8525391 229.018311,34.2468262 C229.191162,34.0422363 229.174072,33.7412109 228.983398,33.5532227 L228.947266,33.5178223 L228.947266,33.5178223 Z" id="Fill-6" fill="#0B0B0A" mask="url(#mask-2)"/>
                <path d="M14.1943359,36.951416 L12.8461914,36.951416 L12.8461914,15.96875 C14.5661621,15.96875 22.5969238,16.4299316 22.5969238,25.8330078 C22.5969238,36.2724609 16.420166,36.951416 14.1943359,36.951416 L14.1943359,36.951416 Z M12.8422852,1.66357422 C13.0842285,1.66357422 13.621582,1.66577148 13.8688965,1.68579102 C16.6665039,1.9140625 19.5500488,3.66162109 19.5500488,7.82373047 C19.5500488,12.6311035 15.8713379,14.4455566 12.8422852,14.4455566 L12.8422852,1.66357422 L12.8422852,1.66357422 Z M19.6359863,14.7287598 C22.362793,14.6472168 26.9765625,12.9257813 26.9765625,7.70874023 C26.9765625,2.01757813 20.5349121,0.0744628906 13.7602539,0.0744628906 L0.7890625,0.0744628906 C0.353271484,0.0744628906 0,0.427734375 0,0.863525391 L0,0.882568359 C0,1.2434082 0.252929688,1.52832031 0.59375,1.64697266 C1.96801758,2.12573242 2.59082031,1.67211914 2.59082031,3.68164062 L2.59082031,34.7165527 C2.59082031,36.7263184 1.96801758,36.2727051 0.59375,36.7514648 C0.252929688,36.8701172 0,37.1550293 0,37.5158691 L0,37.5349121 C0,37.9707031 0.353271484,38.3239746 0.7890625,38.3239746 L15.4572754,38.3239746 C26.970459,38.3239746 32.597168,34.6154785 32.597168,25.8391113 C32.597168,17.9387207 26.2819824,14.7287598 19.6359863,14.7287598 L19.6359863,14.7287598 Z" id="Fill-7" fill="#0B0B0A" mask="url(#mask-2)"/>
                <path d="M150.497559,36.9575195 L149.149414,36.9575195 L149.149414,15.9748535 C150.869141,15.9748535 158.900146,16.4360352 158.900146,25.8391113 C158.900146,36.2785645 152.723145,36.9575195 150.497559,36.9575195 L150.497559,36.9575195 Z M149.145264,1.66967773 C149.387451,1.66967773 149.924561,1.671875 150.172119,1.69189453 C152.969727,1.92016602 155.853271,3.66772461 155.853271,7.82983398 C155.853271,12.637207 152.174561,14.4516602 149.145264,14.4516602 L149.145264,1.66967773 L149.145264,1.66967773 Z M155.939209,14.7348633 C158.666016,14.6533203 163.279785,12.9318848 163.279785,7.71484375 C163.279785,2.02368164 156.837891,0.0805664062 150.063232,0.0805664062 L137.092285,0.0805664062 C136.656494,0.0805664062 136.303223,0.433837891 136.303223,0.869628906 L136.303223,0.888671875 C136.303223,1.24951172 136.556152,1.53442383 136.896729,1.65307617 C138.27124,2.13183594 138.894043,1.67822266 138.894043,3.68774414 L138.894043,34.7226562 C138.894043,35.9328613 139.207764,36.2788086 137.833252,36.7575684 C137.492676,36.8762207 137.239502,37.1611328 137.239502,37.5219727 L137.239502,37.5407715 C137.239502,37.9768066 137.593018,38.3300781 138.028564,38.3300781 L151.760254,38.3300781 C163.273438,38.3300781 168.900391,34.621582 168.900391,25.8452148 C168.900391,17.9448242 162.584961,14.7348633 155.939209,14.7348633 L155.939209,14.7348633 Z" id="Fill-8" fill="#0B0B0A" mask="url(#mask-2)"/>
                <path d="M134.134521,36.6962891 L133.810303,36.6442871 C132.610107,36.3444824 131.487061,35.8806152 130.549805,33.8244629 L124.970703,20.2111816 C123.50293,16.1682129 124.971924,10.9760742 130.970215,10.6120605 C131.349121,10.5991211 131.726562,10.5817871 132.114258,10.5817871 L132.940918,10.5817871 C133.376953,10.5817871 133.733887,10.2614746 133.733887,9.82519531 C133.733887,9.38916016 133.376953,9.06860352 132.940918,9.06860352 L120.038086,9.06860352 C119.602051,9.06860352 119.245117,9.38916016 119.245117,9.82519531 C119.245117,10.2614746 119.602051,10.5817871 120.038086,10.5817871 L120.511475,10.5817871 C120.917236,10.5817871 121.480957,10.8649902 121.683594,11.3432617 C121.938477,11.9440918 121.705566,12.5566406 121.35791,12.8544922 L113.557617,17.9370117 L113.612793,3.17504883 C113.614502,2.64038086 113.370117,2.13500977 112.950195,1.80395508 L112.938721,1.79516602 C112.631836,1.5534668 112.12793,1.36669922 111.661377,1.46337891 C111.284912,1.54150391 101.212402,3.6394043 101.212402,3.6394043 C100.712402,3.7175293 100.531006,4.10205078 100.531006,4.52026367 L100.531006,4.58740234 C100.531006,4.93823242 100.63623,5.23828125 100.976562,5.32397461 C101.772705,5.52441406 103.052979,6.04125977 103.052979,7.26074219 L103.052979,35.2043457 C103.052979,36.1645508 102.93457,36.3444824 101.494385,36.6442871 L101.170898,36.704834 C100.800781,36.7744141 100.531006,37.0976562 100.531006,37.4741211 L100.531006,37.4885254 C100.531006,37.9208984 100.946289,38.3239746 101.378662,38.3239746 L114.875,38.3239746 C115.307373,38.3239746 115.663086,37.8820801 115.663086,37.4885254 L115.663086,37.4741211 C115.663086,37.0976562 115.452637,36.8022461 114.700439,36.6442871 C113.740234,36.4643555 113.558838,36.1645508 113.558838,35.2644043 L113.555664,19.8193359 C114.275635,19.8193359 115.362305,20.3530273 115.911377,21.8466797 L120.505615,34.3642578 C121.176025,36.0708008 121.239746,36.3867188 120.025391,36.704834 C119.969238,36.71875 119.889404,36.7307129 119.837402,36.7412109 C119.481201,36.8127441 119.193848,37.1169434 119.193848,37.4804688 L119.193848,37.5202637 C119.193848,37.9350586 119.581299,38.3239746 119.996338,38.3239746 L133.919189,38.3239746 C134.333984,38.3239746 134.830322,37.9350586 134.830322,37.5202637 L134.830322,37.4353027 C134.830322,37.0725098 134.491211,36.7617188 134.134521,36.6962891" id="Fill-9" fill="#0B0B0A" mask="url(#mask-2)"/>
            </g>
        </g>
    </g>
<style xmlns="" data-source="base" class="dblt-ykjmwcnxmi"/><style xmlns="" data-source="stylesheet-processor" class="dblt-ykjmwcnxmi"/></svg>

<svg xmlns="http://www.w3.org/2000/svg" viewBox="0 0 32.6 38.2"><path fill="#0b0b0a" d="M14.2 36.95h-1.35V15.97c1.72 0 9.75.46 9.75 9.86 0 10.44-6.18 11.12-8.4 11.12zM12.83 1.66c.24 0 .78 0 1.03.03 2.8.22 5.68 1.97 5.68 6.13 0 4.81-3.68 6.63-6.7 6.63zm6.8 13.07c2.72-.08 7.34-1.8 7.34-7.02C26.98 2 20.53.07 13.76.07H.79a.79.79 0 0 0-.79.8v.01c0 .36.25.65.6.77 1.37.48 2 .02 2 2.03v31.04c0 2-.63 1.55-2 2.03-.35.12-.6.4-.6.77v.01c0 .44.35.8.79.8h14.67c11.51 0 17.14-3.72 17.14-12.5 0-7.9-6.32-11.1-12.96-11.1z"/></svg>
